-----BEGIN PGP SIGNATURE-----

iQIzBAABCgAdFiEEBFQ1d9apzGJiOcUMfsvXQP8GrrUFAmjRe90ACgkQfsvXQP8G
rrUlMg/8DBa+vUARaXcpv7EcRBE9rMmYNDbHQFYs8+LcWJm3F0ElN3bdfmj7zjKs
Tg8W5Ukzg3VqnVNne0XyQYkUFyHOalIZezLuXpmpWWp5lK7dsRdqNYVK8Lra6uJo
tsEM3IoHks4g3iS4syAuqnlOPliq2GukEfxCYYoTqMNBv87dp0daIh5nXZ+cYIh1
x3dnW06hoQQU20HpCIfp/0pgrSf8QlNzz3kzVPUI+MxO9IaygTI5PjgTKTuNHu3Y
tRTPQpjC8eNq+hHk9CgHNGg1CkUXlpEDWpOsd/T/ZeEXTkzRaXnmO30NuZZgy1XJ
rLMvzbtSFsnRmxRuaNToo8jxPs3hWnMIw/emxuCRhY22KH3N46ki1isHoXFX5xX3
P+lLKoE3jGOPW8IxZ3iToZNvEkgR2ZE2Un3w/Ydy5koPAuaH9t+8BUEjNwE/ORwC
6e083CZNcEBEsd7+JIJG6UGQlgi8TM9jm86CvMSyJEqloj915uLtQWUq4FsrM2/o
/sa4cR8OnrG9EeE4wAUWYyMPV6mdJK+1KY4lukwQT3BSvrX0tZLEHeCeyoELmHx+
zNvWBDhUHs487rp/jHwW5ozKgZP50GGaOBmVvyKp9l42jQx3DkaFE14QGDJqb8dx
GITVT7rG939mfCqfT+91Ul1hOKGyPLtDVCAk8/us9ToSzSt20ao=
=gCfh
-----END PGP SIGNATURE-----
