-----BEGIN PGP SIGNATURE-----

iQIzBAABCgAdFiEEBFQ1d9apzGJiOcUMfsvXQP8GrrUFAmjRfAMACgkQfsvXQP8G
rrXeiQ/+O5SWWZ3dQ6hegMxp5uRAmxZCm1oRzqRwCwocwqu9J4RXPm3Vrx5lp0UY
g7pypq9nD036GVVO2kNdnww6+xsnLYKj+mDQLIsvCYK8ONz7jSgRHdrc1/lmh5jc
zw9/TdNAhKAOpD3wCdNsRGdY4E8NZQiFJTKHVWUCYQdnspnM9ytiXP7nxPEiHX55
w7+7U9O0U2fghTzr06za8btQZ1JUYSwBdyJYljt1C1UuZKxhlj/H1VepWfRXWD+0
EJBi/b0k1SpRIODVp8HYX5ppgizFo7gKsLRbkAIkNAytJAcQesRxZDj+w8CwZwb+
tT95pEKbwkUq31rwrq+4AnfsGDX7J6q3i8tOQQgWHuk+dljjzOGeVpkceEQ9MgUS
lw3OlNMfmX+RGiVh1qqGFA/8Mj25BTpSOkYOIWuBV39jOsBGwW2MI+GjmVOWqH1U
X5vvddjYcgVGI6LUxoLKjwHHN2zSRoDMJyKFF/C5sv41UymJNcsa45p0x12MGb9m
yDRDxcnnW9xw4HRFpbSO4GD9jTleOSa9jodBmc49X2PEGAaKHQcnUq9j+CoWx8JE
QfCGYE6pfPH2ByU0gKgpVyExGdg/iqallTD+5rR/7yOzchIOka6xEpw22GP8C2cQ
3kS50cts+Q8g7zm0X8NpNRa7LWCdelpZTKPk69Usy0BAiaXxUjA=
=ZiDa
-----END PGP SIGNATURE-----
